X:1
T:Title
%%score { ( 1 4 ) | ( 2 3 ) }
L:1/8
M:6/8
K:F
V:1 treble nm="Grand Piano"
V:4 treble 
V:2 bass 
V:3 bass 
V:1
 z3 z2[Q:1/4=100] F | A2 A FAd | c3 A2 A | [EG]2 [EG] [EG]2 [Ec] | A3- A2 F | A2 A FAd | c3 A2 A | %7
 G2 G A2 G | [EG]3- [EG]2 [EG] | [EB]2 [EB] [EG]2 [EG] | d3 c2 c | [EB]2 [EB] [EG]2 [Ec] | %12
 A3- A2 G | FAc [Af]2 [Fc] | .[Fe]3 [DFB]2 [B,DG] | [CF][FA][Fd] [Ec]2 E | F6 | c3 z3 | d3 z3 | %19
 BBB [EG]2 [Ec] | A3- A2 G | FAc [Af]2 [Fc] |[M:7/8] e2 z z z z2 | %23
[M:3/4] [CF][FA] [Fd] [Ec]2 [CE] |[M:5/8] [A,CF]-[A,CF]- [A,CF]3 |] %25
V:2
 z3 z2 [F,A,] | [F,CF]2 [F,CF] [A,C][K:treble][CF][F,B,F] | [F,A,F]3 [F,CF]2 [F,CF] | %3
 [C,C]2 [C,C] [C,C]2 [C,C] | [F,CF]3- [F,CF]2 [F,A,] | [F,CF]2 [F,CF] [A,C][K:treble][CF][F,B,F] | %6
 [F,A,F]3 [F,CF]2 [F,CF] | [G,CE]2 [G,CE] [G,=B,F]2 [G,B,F] | [C,C]3- [C,C]2 [C,C] | %9
 [C,G,]2 [C,G,] [C,C]2 [C,C] | [F,B,F]3 [F,A,F]2 [F,A,F] | [C,G,]2 [C,G,] [C,C]2 [C,C] | %12
 [F,CF]3- [F,CF]2 [F,B,C] | C[K:treble]F[F,A,F][K:bass] [F,C]2 [F,A,] | %14
 z2[K:treble] d[K:bass] B,,2 B,, | [C,A,]2 [C,A,] [C,G,]2 [C,B,C] | [F,A,C]6 | %17
 F-[F,F-][F,F] [F,CF]3 | F-[F,F-][F,F] [F,A,F]3 | [G,CE][G,CE][G,CE] [C,C]2 [C,C] | %20
 [F,CF]3- [F,CF]2 [F,B,C] | C[K:treble]F[F,A,F][K:bass] [F,C]2 [F,A,] | %22
[M:7/8] z2[K:treble] d[K:bass] B,,3 B,, |[M:3/4] [C,A,]2 [C,A,] [C,G,]2 [C,B,] | %24
[M:5/8] [F,,F,]-[F,,F,]- [F,,F,]3 |] %25
V:3
 x6 | z3 .F,3[K:treble] | x6 | x6 | x6 | z3 .F,3[K:treble] | x6 | x6 | x6 | x6 | x6 | x6 | x6 | %13
 .[F,A,]3[K:treble][K:bass] z3 | [B,,B,]3[K:treble][K:bass] z3 | x6 | x6 | .[F,A,]3 z3 | %18
 .[F,B,]3 z3 | x6 | x6 | .[F,A,]3[K:treble][K:bass] z3 |[M:7/8] [B,,B,]3[K:treble][K:bass] z z z2 | %23
[M:3/4] x6 |[M:5/8] x5 |] %25
V:4
 x6 | x6 | x6 | x6 | x6 | x6 | x6 | x6 | x6 | x6 | x6 | x6 | x6 | x6 | x6 | x6 | x6 | z A,A, A3 | %18
 z B,B, c3 | x6 | x6 | x6 |[M:7/8] F3 [DFB]3 [B,DG] |[M:3/4] x6 |[M:5/8] x5 |] %25

